storage/app/icons/phosphoricons/regular/note-blank.svg

<svg xmlns="http://www.w3.org/2000/svg" fill="currentColor" viewBox="0 0 256 256"><path d="M208 32H48a16 16 0 0 0-16 16v160a16 16 0 0 0 16 16h108.69a15.86 15.86 0 0 0 11.31-4.69L219.31 168a15.86 15.86 0 0 0 4.69-11.31V48a16 16 0 0 0-16-16M48 48h160v104h-48a8 8 0 0 0-8 8v48H48Zm148.69 120L168 196.69V168Z"/></svg>

<svg xmlns="http://www.w3.org/2000/svg" viewBox="0 0 256 256" fill="currentColor"><path d="M208,32H48A16,16,0,0,0,32,48V208a16,16,0,0,0,16,16H156.69A15.86,15.86,0,0,0,168,219.31L219.31,168A15.86,15.86,0,0,0,224,156.69V48A16,16,0,0,0,208,32ZM48,48H208V152H160a8,8,0,0,0-8,8v48H48ZM196.69,168,168,196.69V168Z"/></svg>
